X:526
T: ES WOLLT EIN MAEDCHEN EIN SCHNEIDER
N: E1800
O: Europa, Mitteleuropa, Deutschland, Weser - Gegend, Hoepla
R: Ehestands - Lied
M: 2/4
L: 1/16
K: G
D2 | G4(3B2A2G2 | A4
d2c2 | B2A2G2B2 | A6
GA | B2B2B2B2 | d2A2A2
A2 | d2A2A2GF | B4AGFE | D6

@@@ Tune index: 5210
